assets/logo/favicon.svg

<svg width="34" height="35" viewBox="0 0 34 35" fill="none" xmlns="http://www.w3.org/2000/svg">
<path d="M16.7273 34.309C25.9655 34.309 33.4545 26.82 33.4545 17.5818C33.4545 8.3435 25.9655 0.854492 16.7273 0.854492C7.48905 0.854492 0 8.3435 0 17.5818C0 26.82 7.48905 34.309 16.7273 34.309Z" fill="#3758F9"/>
<path d="M13.4691 5.17548C13.7824 5.29667 14.0522 5.54879 14.5916 6.05303L26.3749 17.0676C24.389 17.1569 22.4284 17.5486 20.5606 18.2291L12.7444 10.8076C12.6821 10.7483 12.6022 10.7109 12.5168 10.7008C12.4314 10.6908 12.3451 10.7087 12.2707 10.7518C12.1963 10.7949 12.1378 10.8609 12.1041 10.94C12.0704 11.0191 12.0632 11.107 12.0835 11.1906L14.6314 21.6463C13.0998 22.9266 11.7733 24.434 10.6982 26.1159L7.07006 10.3913C6.90444 9.67286 6.82153 9.3136 6.87361 8.98198C6.9194 8.68918 7.03942 8.41299 7.22222 8.17974C7.42959 7.91552 7.74887 7.73118 8.38756 7.36243L11.3074 5.67669C11.9467 5.30756 12.2664 5.12299 12.5993 5.07584C12.893 5.03411 13.1924 5.06847 13.4691 5.17548Z" fill="white"/>
<path d="M23.6989 21.0382C23.3594 21.9987 22.2466 23.1626 20.7048 24.0528C18.8124 25.1453 16.8863 25.4719 16.008 24.9226C16.1196 25.4636 16.3858 26.0026 16.5776 26.3348C16.5776 26.3348 17.4197 28.0222 19.208 28.5014C19.0448 28.2186 19.0006 27.8826 19.0851 27.5673C19.1696 27.252 19.3759 26.9832 19.6587 26.8199C20.6677 26.2374 21.1749 27.1183 21.5864 27.8332L21.6232 27.8968C22.2491 28.981 23.4482 29.5279 24.6167 29.3755C24.2993 29.1608 24.0349 28.8765 23.8438 28.5443C23.2468 27.5104 23.6316 26.7748 24.0789 25.9201C24.4345 25.24 24.8298 24.4843 24.8016 23.4426C24.7863 22.8816 24.6308 22.3333 24.3495 21.8477C24.1705 21.5377 23.9499 21.2669 23.6989 21.0382Z" fill="#C6CDEB"/>
</svg>

<svg xmlns="http://www.w3.org/2000/svg" width="34" height="35" fill="none"><path fill="#3758F9" d="M16.727 34.309c9.238 0 16.728-7.489 16.728-16.727 0-9.239-7.49-16.728-16.728-16.728C7.49.854 0 8.344 0 17.582c0 9.238 7.489 16.727 16.727 16.727Z"/><path fill="#fff" d="M13.47 5.175c.312.122.582.374 1.122.878l11.783 11.015a19.55 19.55 0 0 0-5.814 1.161l-7.817-7.421a.398.398 0 0 0-.66.383l2.547 10.455a19.548 19.548 0 0 0-3.933 4.47L7.07 10.39c-.166-.718-.248-1.077-.196-1.409.045-.293.165-.569.348-.802.208-.264.527-.449 1.166-.818l2.92-1.685c.639-.37.958-.554 1.291-.601.294-.042.593-.008.87.1Z"/><path fill="#C6CDEB" d="M23.699 21.038c-.34.96-1.452 2.125-2.994 3.015-1.893 1.092-3.819 1.419-4.697.87.112.54.378 1.08.57 1.412 0 0 .842 1.687 2.63 2.166a1.231 1.231 0 0 1 .45-1.681c1.01-.583 1.517.298 1.928 1.013l.037.064a3.007 3.007 0 0 0 2.994 1.479 2.522 2.522 0 0 1-.773-.832c-.597-1.034-.212-1.77.235-2.624.355-.68.75-1.436.723-2.477a3.378 3.378 0 0 0-1.103-2.404Z"/></svg>
